X: 16108
T: Green Gates, The
R: reel
M: 4/4
K: Gmajor
GBdg egdB|GBdg egdg|eA (3cBA eA (3cBA|cdef gedB|
GBdg egdB|GBdg egdB|cdef gedc|BGAF G4:|
|:dg~g2 bg~g2|dg~g2 egdg|eA (3cBA eA (3cBA|cdef gedB|
dg~g2 bg~g2|dg~g2 egdB|cdef gedc|BGAF G4:|

